svgs/lg_thinq.svg

<svg width="192" height="192" viewBox="0 0 192 192" fill="none" xmlns="http://www.w3.org/2000/svg">
<path d="M34.9128 158.154C42.0443 158.154 47.8255 152.373 47.8255 145.242C47.8255 138.11 42.0443 132.329 34.9128 132.329C27.7812 132.329 22 138.11 22 145.242C22 152.373 27.7812 158.154 34.9128 158.154Z" stroke="black" stroke-width="12" stroke-linecap="round" stroke-linejoin="round"/>
<path d="M156.591 86.6376C163.996 86.6376 170 80.634 170 73.2282C170 65.8224 163.996 59.8188 156.591 59.8188C149.185 59.8188 143.181 65.8224 143.181 73.2282C143.181 80.634 149.185 86.6376 156.591 86.6376Z" stroke="black" stroke-width="12" stroke-linecap="round" stroke-linejoin="round"/>
<path d="M145.168 63.7919L96.4967 33L34.9128 71.7383V132.329" stroke="black" stroke-width="12" stroke-linecap="round" stroke-linejoin="round"/>
<path d="M115.369 135.607V99.8483H76.6309V155.472H157.087V87.9288" stroke="black" stroke-width="12" stroke-linecap="round" stroke-linejoin="round"/>
</svg>

<svg width="192" height="192" viewBox="0 0 192 192" fill="none" xmlns="http://www.w3.org/2000/svg"><path d="M34.913 158.154c7.131 0 12.913-5.781 12.913-12.912 0-7.132-5.782-12.913-12.913-12.913-7.132 0-12.913 5.781-12.913 12.913 0 7.131 5.781 12.912 12.913 12.912ZM156.591 86.638c7.405 0 13.409-6.004 13.409-13.41 0-7.406-6.004-13.41-13.409-13.41-7.406 0-13.41 6.004-13.41 13.41 0 7.406 6.004 13.41 13.41 13.41Z" stroke="#000" stroke-width="12" stroke-linecap="round" stroke-linejoin="round"/><path d="M145.168 63.792 96.497 33 34.913 71.738v60.591" stroke="#000" stroke-width="12" stroke-linecap="round" stroke-linejoin="round"/><path d="M115.369 135.607V99.848H76.631v55.624h80.456V87.929" stroke="#000" stroke-width="12" stroke-linecap="round" stroke-linejoin="round"/></svg>
